X:25
T:Bush in Bloom
S:Trad, arr. Paddy O'Brien 
Z:Set: Bush in Bloom/Congress/Ewe Reel
R:reel
E:9
I:speed 350
M:C|
K:G
ge|~d2 BG AGEF|~G2 Bd efge|~d2BG AGED |Eaag fde^c|\
~d2 BG AGEF|~G2 Bd efge|dG~G2 AGEF|GBAF G2:|\
Bd|~g2 dg bgdg|~g2bg agef|~g2 dg Bgdg|egfa ~g2ga|\
bg~g2 agef|gfge dega| bgaf gfed|egfa g2:|**
